X: 23
T: Piano Sonata no. 7 in D major, Largo e mesto
C: Ludwig van Beethoven
%%abc-version 2.0
%%abcx-abcm2ps-target-version 5.9.1 (29 Sep 2008)
%%abc-creator hum2abc beta
%%abcx-conversion-date 2021/01/11 11:42:14
%%abc-edited-by Craig Stuart Sapp
%%abcx-initial-encoding-date 2008/10/29/
%%gracespace 0 6 6
%%humdrum-veritas 2399781191
%%humdrum-veritas-data 1288248944
%%linebreak <none>
%%barnumbers 0
L: 1/16
M: 6/8
Q: "Largo e mesto" 1/8=80
%%staves {1 2}
V: 1 clef=treble
V: 2 clef=bass
K: F
[V:1] D2^C2D2 F2C2D2 & [F,12A,12] | 
[V:2] [D,,12F,,12A,,12D,12] | 
[V:1] D2^C2D2 G2C2D2 & [G,12B,12] | 
[V:2] [D,,12G,,12B,,12D,12] | 
[V:1] F2E2D2^C4D2 & [G,4B,4][G,2B,2][G,4B,4][G,2B,2] | 
[V:2] [^C,,4^C,4][D,,2D,2][E,,4E,4][D,,2D,2] | 
[V:1] F2E2^F2[D4G4][C2D2A2] & [G,4B,4][A,2D2]z6 | 
[V:2] [^C,,4^C,4][=C,2D,2][B,,4D,4][^F,,2A,,2^F,2] | 
[V:1] [B,2D2B2] .B2.B2 .B2.B2.B2 | 
[V:2] [G,,4D,4G,4]z2z4z2 | 
[V:1] e2^d2e2 g2d2e2 & [G4B4^c4][G2B2c2][G4B4c4][G2B2c2] | 
[V:2] E2^D2E2 E2D2E2 & [G,4B,4^C4][G,2B,2C2][G,4B,4C4][G,2B,2C2] | 
[V:1] e2f2f2f4e3/d/ & [^G4=B4d4][G2B2d2][G6B6d6] | 
[V:2] E2F2[D2F2]F4E3/D/ & [^G,4=B,4D4][G,2B,2][G,6B,6D6] | 
[V:1] d2A2.A2 A2^C2.C2 | 
[V:2] [A,4D4F4]z2[A,,4E,4G,4]z2 | 
[V:1] D4z2 {/A} a2>g2fe | 
[V:2] D,A,F,A,D,A, ^C,A,E,A,C,A, | 
[V:1] g>ff2- f/g//f//e/d/ d^c.c2.c2 | 
[V:2] D,A,F,A,D,A, A,,A,^G,A,=G,A, | 
[V:1] d>.e.f2 z A2< {/A} a2gfe | 
[V:2] F,A,DA,F,D, ^C,A,E,A,G,A, | 
[V:1] g>f f2>^f2 {/G} g2>=f2ed | 
[V:2] D,A,^G,A,=C,A, =B,,=G,D,G,F,G, | 
[V:1] f2e2 z2 z2 .[c2d2].[c2d2] | 
[V:2] z6^F,6 & C,G,C=B,A,G, ^F,DA,DCD | 
[V:1] e3f/e<!beambr1!.d.e/ g2>f2.e.d & c6=B6 | 
[V:2] G,ECEG,E G,FDFG,F & G,4G,2G,4G,2 | 
[V:1] ^de z2 z2z6 & c2 z2 z2 z2 .[=d2c'2d'2].[d2c'2d'2] | 
[V:2] C,CA,,A,G,,G,^F,,4F,,2 & z6^F,,^F,A,,F,F,,F, | 
[V:1] {/e} e'2-e'/c'/.g/.e/ .c/.G/.E/.C/ G2>F2DG & z6=B,4B,2 | 
[V:2] G,,G,C,G,E,G, G,,G,D,G,F,G, & G,,6G,,4G,,2 | 
[V:1] C4C>cc4=BA & z4^D4D4 | 
[V:2] E,4z2A,4=B,C & C,4z2F,6 | 
[V:1] A2^G2 A>=B c2B/c/B/c/=d/c/B/A/ & E4z2^D4D2 | 
[V:2] C2=B,2 z2 A,3^G,/A,/G,/A,/=B,/C/ & E,4z2F,6 | 
[V:1] A2^G2 z G2< [F2G2=B2f2]!wedge![EGBe]!wedge![DGBd]!wedge![FGf] & E4z2z6 | 
[V:2] C2=B,2 z2z6 & E,4z2 [D,2^G,2B,2]>!wedge![E,2G,2B,2]!wedge![F,G,B,]!wedge![=B,,D,B,] | 
[V:1] [E2A2e2] z2 .[F2A2=B2].[E2A2c2] z2 .[=B,2D2E2^G2] | 
[V:2] !wedge![C,2E,2C2] z2 .[D,2A,2=B,2].[E,2A,2C2] z2 .[E,,2E,2] | 
[V:1] .[C4E4A4]z2z4[^D,2^D2] | 
[V:2] .A,,4A,,2!accent!C,4=B,,A,, & z6F,,6 | 
[V:1] [E,E][E2e2].[=D=d].[Cc].[=B,=B][A,4A4]z [^D,^D] | 
[V:2] A,,2^G,,2 z> A,, C,2=B,,/C,/B,,/C,/D,/C,/B,,/A,,/ & E,,4z2F,,6 | 
[V:1] [E,E][E2e2]^d/e/d/e/d/e/ [F2f2]>[E2e2].[D=d].[Ff] & z6[^G4=B4]z2 | 
[V:2] A,,2^G,,2 z2[^G,4=B,4]z2 & E,,6D,2>E,2.F,.=B,, | 
[V:1] [B2b2]>[A2a2].[Gg].[B2b2]< =c'2=b.a.c' & [^c4e4]z2[=c4^d4^f4]z2 | 
[V:2] [^C4E4]z2[K:clef=treble]A4z2 & G,2>A,2.B,.E,2< [^D2^F2]E.F.D | 
[V:1] .[=B2=d2=f2^g2] z2 .[A2c2e2a2] .[F2A2B2f2] z2 .[E2^G2e2] | 
[V:2] .[=D2=F2^G2] z2 .[C2E2][K:clef=bass] .[D,2D2] z2 .[E,2=B,2] | 
[V:1] A4z2 z2 .e2.e2 | 
[V:2] A,,C,E,C,=B,,A,, ^G,,B,,E,D,C,B,, | 
[V:1] e2-e3/f//e//.d>.ef4ed | 
[V:2] z2A,4A,A,D^C=C=B, & A,,^G,A,=G,F,E,D,6 | 
[V:1] z6d4c=B & c2-c3/d//c//=B>c z2 z DC=B, | 
[V:2] E,A,E^DDCE,4E,,2 & E,6-=B,A,^G,F,E,D, | 
[V:1] .A.E.C.A, z2z6[K:clef=bass] & A,2z4z6 | 
[V:2] C,2 z2 .E,.C, A,,2 z2 z2 & A,,2 z2 A,,,2 A,,,2 z2 z2 | 
[V:1] z6C4DE & z4z2 A,2A,2A,2 | 
[V:2] z4z2C,4D,E, & F,,2F,,2F,,2 F,,2F,,2F,,2 | 
[V:1] F4F2 F3G/F/.E.F & [A,2C2][A,2C2][A,2C2] [A,2C2][A,2C2][A,2C2] | 
[V:2] F,4F,2 F,3G,/F,/.E,.F, & F,,2F,,2F,,2 F,,2F,,2F,,2 | 
[V:1] [^F,2^F2][G,4G4]z2 z2 [G,3/G3/][=F,/=F/] & [B,2C2][B,2C2][B,2C2] [B,2C2][B,2C2][B,2C2] | 
[V:2] [E,,2C,2][E,,2C,2][E,,2C,2] [E,,2C,2][E,,2C,2][E,,2C,2] | 
[V:1] [C2F2][C2E2]D>CC4E/D/C & B,2B,2B,2 [E,2B,2][E,2B,2]B,2 | 
[V:2] [C,2F,2][C,2E,2]D,>C,C,4E,/D,/C, & G,,2G,,2G,,2 G,,2G,,2G,,2 | 
[V:1] C2F4-F2E2_E2 & A,2[A,2C2][A,2C2] [A,2C2][A,2C2][A,2C2] | 
[V:2] C,2F,4-F,2E,2_E,2 & F,,2F,,2F,,2 F,,2F,,2F,,2 | 
[V:1] _E2D2^C>D E2D2^C3/D/ & [A,2C2][A,2C2]A,2 [A,2=C2][A,2C2]A,2 | 
[V:2] _E,2D,2^C,>D, E,2D,2C,3/D,/ & ^F,,2F,,2F,,2 F,,2F,,2F,,2 | 
[V:1] D<[K:clef=treble] zz4z6 & B,/ b/c'/d'/ z/ d'/c'/b/ z/ b/a/g/ z/ ^f/g/d/ z/ d/c/B/ z/ B/A/G/ | 
[V:2] z2 [B,2D2][B,2D2] [B,2D2][B,2D2][B,2D2] & {/G,,2B,,2D,2}G,12 | 
[V:1] =F2E2^D>E F2E2^D3/E/ & [=B,2D2][B,2D2]B,2 [B,2=D2][B,2D2]B,2 | 
[V:2] =F,2E,2^D,>E, F,2E,2D,3/E,/ & ^G,,2G,,2G,,2 G,,2G,,2G,,2 | 
[V:1] [^C/E/] ^c'/d'/e'/ z/ e'/d'/c'/ z/ c'/=b/a/ z/ ^g/a/e/ z/ e/d/^c/ z/ c/=B/A/ | 
[V:2] z2 [^C2E2][C2E2] [C2E2][C2E2][C2E2] & {/A,,2^C,2E,2}A,12 | 
[V:1] z/ d'/e'/f'/ z/ f'/e'/d'/ z/ ^c'/d'/a/ z/ ^g/b/a/ z/ a/=g/f/ z/ f/e/d/ | 
[V:2] z2 [D2F2][D2F2] [D2F2][D2F2][D2F2] & {/A,,2D,2F,2}A,12 | 
[V:1] z/ g/a/b/ z/ b/a/g/ z/ g/f/e/ z/ e/d/^c/ z/ B/A/G/ z/ G/F/E/ | 
[V:2] z2 [E2G2][E2G2] [E2G2][E2G2][E2G2] & {/A,,2E,2G,2}A,12 | 
[V:1] z/ E/D/^C/z4z6 | 
[V:2] z2 z/ B,/A,/G,/ z/ G,/F,/E,/ z/ E,/D,/^C,/ z2 z2 & z12 | 
[V:1] z2 z2 z2 z/ E/D/^C/ z2 z2 | 
[V:2] z/ B,/A,/G,/z4z6 & z12 | 
[V:1] z/ E/D/^C/ B2-B/A/G/^F/ =F/E/^D/=D/ z2 z2 | 
[V:2] z4>z4 ^C/=C/=B,/_B,/ A,/G,/F,/E,/ & z12 | 
[V:1] D2^C2D2 F2C2D2 & [F,4A,4]>[F,4A,4]G,2[F,2A,2] | 
[V:2] [D,,4F,,4A,,4D,4]>[F,,4A,,4][G,,2B,,2][F,,2A,,2] & z6[D,,6D,6] | 
[V:1] D2^C2D2 G2C2D2 & [E,6G,6B,6][G,4B,4][G,2B,2] | 
[V:2] [D,,4E,,4G,,4B,,4D,4]>D,4 E,2 D,2 & z6[D,,6G,,6B,,6] | 
[V:1] F2E2D2^C4D2 & [G,4B,4][G,2B,2][G,4B,4][G,2B,2] | 
[V:2] [^C,,4^C,4][D,,2D,2] [F,,2F,2][E,,2E,2][D,,2D,2] | 
[V:1] F2E2^F2 A2G2A2 & [G,4B,4][A,2D2]D4[C2D2] | 
[V:2] [^C,,4^C,4][=C,2D,2][B,,4D,4][^F,,2D,2^F,2] | 
[V:1] B2 .B2.B2 .B2B2B2 & [B,2D2] z2 z2z4z2 | 
[V:2] [G,,4D,4G,4]z2z4z2 | 
[V:1] B2B2B2 B2B2B2 & _E2D2E2 G2D2E2 | 
[V:2] [G,2B,2][G,2B,2][G,2B,2] [G,2B,2][G,2B,2][G,2B,2] | 
[V:1] _e2d2e2 _g2d2e2 & B2B2B2 B2B2B2 | 
[V:2] [_G,2B,2_E2][G,2B,2E2][G,2B,2E2] [G,2B,2E2][G,2B,2E2][G,2B,2E2] | 
[V:1] a2^g2a2 [c'2_e'2]e'2e'2 & [A2_e2]e2e2 e2[e2g2][e2a2] | 
[V:2] [F,2A,2C2_E2][F,2A,2C2E2][F,2A,2C2E2] [^F,2A,2C2E2][F,2A,2C2E2][F,2A,2C2E2] | 
[V:1] d'4z2 z2 .c'2.c'2 & [d4b4]z2 z2 b2b2 | 
[V:2] G,B,DB,G,B, =E,[G,B,]C[G,B,]E,[B,D] | 
[V:1] d'3_e'/d'<!beambr1!.^c'.d'/z6 & b6f'2>e'2.d'.=c' | 
[V:2] F,B,DB,F,B, F,A,_EA,F,A, | 
[V:1] ^c'd' z2 z2 z2 .[=c2b2=c'2].[c2b2c'2] | 
[V:2] z6=E,,C,G,,C,B,,C, & B,F,D,B,,G,,F,,=E,,4E,,2 | 
[V:1] d'2-d'/b/.f/.d/ .B/.F/.D/B,/A,4A,2 & z6F2>_E2CF | 
[V:2] F,,F,B,,F,D,F, z C,F,_E,C,F, & F,,6F,,4F,,2 | 
[V:1] B,4D2F4=ED & z6^G,4G,2 | 
[V:2] D,4z2D,4=E,F, & B,,4z2B,,6 | 
[V:1] D2^C2 D>E F2E/F/E/F/!beambr1!=G/F/E/D/ & A,4z2^G,4G,2 | 
[V:2] F,2E,2 z2 D,3^C,/D,/!beambr1!C,/D,/E,/F,/ & A,,4z2B,,6 | 
[V:1] D2^C2 z> C [B,2C2E2B2]>!wedge![A,2C2E2A2]!wedge![G,CEG]!wedge![B,CB] & A,4z2z6 | 
[V:2] F,2E,2 z2 [G,,2^C,2E,2]>[A,,2C,2E,2]!wedge![B,,C,E,]!wedge![E,,G,,E,] & A,,4z2z6 | 
[V:1] !wedge![A,2D2A2] z2 .[B,2D2E2].[A,2D2F2] z2 .[E,2G,2A,2^C2] | 
[V:2] !wedge![F,,2A,,2F,2] z2 .[G,,2D,2E,2].[A,,2D,2F,2] z2 .[A,,,2A,,2] | 
[V:1] .[F,4A,4D4]z2z4[^G,2^G2] | 
[V:2] .[D,,4D,4]D,2!accent!F,4E,D, & z4z2B,,6 | 
[V:1] [A,A][A2a2].[Gg].[Ff].[Ee][D4d4]z [^G,^G] | 
[V:2] D,2^C,2 z> D, F,2E,/F,/E,/F,/!beambr1!G,/F,/E,/D,/ & A,,4z2B,,4z2 | 
[V:1] [A,A][A2a2]^g/a/!beambr1!g/a/g/a/ [B2b2]>[A2a2].[=G=g].[Bb] & z6[^c6e6] | 
[V:2] A,,4z2 G,2>A,2.B,.E,[K:clef=treble] & D,2^C,2 z2[^C6E6] | 
[V:1] [_E2_e2]>[D2d2].[=C=c].[E2e2]< [=F2=f2][=E=e].[Dd][Ff] & [^F6A6][^G6=B6] | 
[V:2] [^F6A6][^G6=B6] & =C2>D2._E.A,2< D2=E.=F.D | 
[V:1] ^c2 z2z8 & [E2=G2B2] z2 .[d2f2a2d'2].[B2d2e2b2] z2 .[A2c2e2a2] | 
[V:2] ^c2 z2 .[F2A2].[G,2D2E2G2] z2[K:clef=bass] .[A,2^C2E2] & [E2=G2B2] z2z8 | 
[V:1] (3:2:36z/ F,/A,/D/A,/F,/ z/ F,/A,/D/A,/F,/ z/ F,/A,/D/A,/F,/ z/ F,/A,/D/A,/F,/ z/ G,/A,/D/A,/F,/ z/ F,/A,/D/A,/F,/ | 
[V:2] D,12 & D,,2^C,,2D,,2 F,,2C,,2D,,2 | 
[V:1] (3:2:36z/ F,/B,/D/B,/F,/ z/ F,/B,/D/B,/F,/ z/ F,/B,/D/B,/F,/ z/ F,/B,/D/B,/F,/ z/ F,/B,/D/B,/F,/ z/ F,/B,/D/B,/F,/ | 
[V:2] B,,12 & B,,,2A,,,2B,,,2 D,,2A,,,2B,,,2 | 
[V:1] (3:2:18z/ _G,/B,/_E/B,/G,/ z/ G,/B,/E/B,/G,/ z/ G,/B,/E/B,/G,/ | 
[V:2] _G,,,2B,,,2_E,,2 & _G,,,6 | 
[V:1] (3:2:18z/ G,/B,/E/B,/G,/ z/ G,/B,/E/B,/G,/ z/ G,/B,/E/B,/G,/ [I:setbarnb 68]| 
[V:2] _G,,2B,,2_E,2 & _G,,6 | 
[V:1] (3:2:36z/ =A,/C/^F/_E/C/ z/ A,/C/F/E/C/ z/ A,/C/F/E/C/ z/ B,/E/=G/E/B,/ z/ B,/E/G/E/B,/ z/ B,/E/G/E/B,/ | 
[V:2] =A,,2^F,2-[_E,2F,2] B,,2=G,2-[E,2G,2] & =A,,6B,,6 | 
[V:1] (3:2:30z/ =B,/D/_A/=F/D/ z/ B,/D/A/F/D/ z/ B,/D/A/F/D/ z/ C/F/=A/F/C/ z/ C/F/A/F/C/ z// ^C//=E//G//B//G//E//C// | 
[V:2] =B,,4>z4 =A,2B,2 & =B,,2_A,2-[=F,2A,2]C,4[^C,2E,2G,2] | 
[V:1] (3:2:12z/ D/F/=B/_A/F/ z/ D/F/B/A/F/ z// _E//^F//=A//c//A//F//E// | 
[V:2] z2 [F,2_A,2=B,2][^F,2=A,2C2] & D,4_E,2 | 
[V:1] (3:2:18z/ =E/G/^c/B/G/ z/ E/G/c/B/G/ z/ =F/A/d/A/F/ [I:setbarnb 71]| 
[V:2] z2 [G,2B,2^C2][A,2D2] & =E,4F,2 | 
[V:1] z// G//B//d//e//d//B//G// z// G//B//d//e//d//B//G// z// G//B//d//e//d//B//G// z// ^G//=B//d//e//d//B//G// z// G//B//d//e//d//B//G// z// G//B//d//e//d//B//G// | 
[V:2] z2 [B,2D2E2][B,2D2E2] z2 [=B,2D2E2][B,2D2E2][K:clef=treble] & G,6^G,6 | 
[V:1] [A/d/f/] d'/e'/f'/ z/ f'/e'/d'/ z/ ^c'/d'/a/ z/ ^g/b/a/ z/ a/=g/f/ z/ f/e/d/ | 
[V:2] z2 [D2F2A2][D2F2A2] [D2F2A2][D2F2A2][D2F2A2] & A,12 | 
[V:1] z/ g/a/b/ z/ b/a/g/ z/ g/f/e/ z/ e/d/^c/ z/ B/A/G/ z/ G/F/E/ | 
[V:2] z2 [D2E2G2][D2E2G2] z2 [^C2E2G2][C2E2][K:clef=bass] & A,6A,6 | 
[V:1] z/ d/e/f/ z/ f/e/d/ z/ ^c/d/A/ z/ ^G/B/A/ z/ A/=G/F/ z/ F/E/D/ | 
[V:2] z2 [D,2F,2A,2][D,2F,2A,2] [D,2F,2A,2][D,2F,2A,2][D,2F,2A,2] & A,,12 | 
[V:1] z/ G/A/B/ z/ B/A/G/ z/ G/F/E/ z/ E/D/^C/ z/ B,/A,/G,/ z/ G,/F,/E,/ | 
[V:2] z2 [D,2E,2G,2][D,2E,2G,2] z2 [^C,2E,2G,2][C,2E,2] & A,,6A,,6 | 
[V:1] z4z2 f2^c2d2 | 
[V:2] [D,,4D,4]z2z4z2 | 
[V:1] [B4d4b4]>b4^c2d2 | 
[V:2] [G,6D6G6]z4z2 | 
[V:1] [A4d4a4]>f'4^c'2d'2 | 
[V:2] [F,6D6F6]z6[K:clef=treble] | 
[V:1] d'2a2b2 b2^f2g2 | 
[V:2] d2A2B2 B2^F2G2 | 
[V:1] g2d2_e2[_E4e4][D2d2] | 
[V:2] G2D2_E2[K:clef=bass]_E,4D,2 | 
[V:1] [^C4^c4]z2^g4a2 | 
[V:2] ^C,4z2z4z2 | 
[V:1] [A,6D6F6]^g4a2 | 
[V:2] [D,,6D,6]z4z2 | 
[V:1] [=G,6^C6=E6]^g4a2 | 
[V:2] [A,,,6A,,6]z4z2 | 
[V:1] z4[K:clef=bass].[G,2D2].[F,4D4].[E,2B,2^C2D2] | 
[V:2] D,4.[B,,2D,2].[A,,4D,4].[G,,2D,2] & D,,6D,,6 | 
[V:1] .[F,4A,4D4].[G,2D2].[F,4D4].[E,2B,2^C2D2] | 
[V:2] .[F,,4D,4].[B,,2D,2][A,,4D,4].[G,,2D,2] & D,,6D,,6 | 
[V:1] [F,4A,4D4][K:clef=treble]^c2 d2 z2 ^c'2 | 
[V:2] [D,,4F,,4A,,4D,4]z2z4z2 | 
[V:1] d'2 z2 z2z4!fermata!z2 | 
[V:2] z4D,,2D,,4!fermata!z2 | 


